X:1
T:Title
%%score { ( 1 3 ) | ( 2 4 ) }
L:1/8
M:4/4
K:F
V:1 treble nm="Grand Piano"
V:3 treble 
V:2 bass 
V:4 bass 
V:1
 z4 z2[Q:1/4=100] C2 | F2 F2 [EG]2 [EG]2 | A4 c2 c2 | [Ec]2 [EG]2 [EA]2 [EB]2 | A6 C2 | %5
 F2 F2 [EG]2 [EG]2 | A4 c2 c2 | c2 =B2 A2 B2 | [Ec]6 [EG]2 | [EG]2 [FA]2 [CGB]2 [CGB]2 | %10
 [CGB]4 [CFA]2 [CFA]2 | [D^FA]2 [DGB]2 [DAc]2 [DAc]2 | [Ac]4 B2 B2 | A2 G2 A2 B2 | %14
 d2 c2 [^FB]2 [FA]2 | [DA]2 [DG]2 [Ec]2 [EA]2 |[M:3/4] F6 |[M:1/4] F2 |[M:4/4] F2 E2 E2 [EG]2 | %19
 G4 z4 | [Fd]2 [DFG]2 [DFG]2 [DFA]2 | [G,EG]6 [CEG]2 | A2 G2 A2 B2 | d2 c2 [^FB]2 [FA]2 | %24
 [DA]2 [DG]2 [Ec]2 [EA]2 |[M:3/4] [CF]6 |] %26
V:2
 z4 z2 [F,A,]2 | [F,A,C]2 [F,A,C]2 [C,C]2 [C,C]2 | [F,CF]4 [F,A,F]2 [F,A,F]2 | %3
 [C,G,]2 [C,B,]2 [C,A,]2 [C,C]2 | [F,CF]6 [F,A,]2 | [F,A,C]2 [F,A,C]2 [C,C]2 [C,C]2 | %6
 [F,CF]4 [F,A,F]2 [F,A,F]2 | [G,DF]2 [G,DF]2 [G,CF]2 [G,DF]2 | [C,C]6 [C,C]2 | %9
 [C,C]2 [C,C]2 E,2 E,2 | F,4 F,2 F,2 | D,2 D,2 ^F,2 F,2 | z4[K:treble] G2 [G,DG]2 | %13
 [CE]2 [B,CE]2 [A,CE]2[K:bass] [G,B,E]2 | [F,A,F]4 [D,D]2 [D,C]2 | %15
 [G,B,]2 [G,B,]2 [C,B,]2 [C,B,]2 |[M:3/4] [F,A,C]6 |[M:1/4] [F,A,C]2 | %18
[M:4/4] [C,G,C]2 [C,G,C]2 [C,G,C]2 [C,B,]2 | E2 z2 [F,A,C]2 [F,CF]2 | [B,,B,]2 B,,2 =B,,2 B,,2 | %21
 C,6 C,2 | [CE]2 [B,CE]2 [A,CE]2 [G,B,E]2 | [F,A,F]4[K:bass] [D,D]2 [D,C]2 | %24
 [G,B,]2 [G,B,]2 [C,B,]2 [C,B,]2 |[M:3/4] [F,A,]6 |] %26
V:3
 x8 | x8 | x8 | x8 | x8 | x8 | x8 | x8 | x8 | x8 | x8 | x8 | D6 z2 | x8 | x8 | x8 |[M:3/4] x6 | %17
[M:1/4] x2 |[M:4/4] x8 | z2 C2 F2 A2 | x8 | x8 | x8 | x8 | x8 |[M:3/4] x6 |] %26
V:4
 x8 | x8 | x8 | x8 | x8 | x8 | x8 | x8 | x8 | x8 | x8 | x8 | G,6[K:treble] z2 | x6[K:bass] x2 | %14
 x8 | x8 |[M:3/4] x6 |[M:1/4] x2 |[M:4/4] x8 | [F,B,]4 z4 | x8 | x8 | x8 | x4[K:bass] x4 | x8 | %25
[M:3/4] x6 |] %26

